!!!OTL: H&uuml;bsch und fein, aber allein (128), S. 293
!!!id: T0298
**kern
*clefG2
*k[]
*G:
{8b
=1
4b
8g
4g
8g
=2
4g
8a
4.b}
=3
{4a
8a
4e
8e
=4
8d
8d
8g
4.a}
=5
{4g
8e
4e
8d
=6
4g
8a
4.b}
=7
{4a
8a
4g
8e
=8
4d}
4.r
==
*-
!!!minrhy: 8
!!!meters: 6/8 ]  ZZ[4
!!!cut: H&uuml;bsch und fein, aber allein (128), S. 293
!!!reg: Luxemburg
!!!rhy1: X  X_XX_X  X_XX_.
!!!rhy2: X_XX_X  XXXX_.
!!!key: T0298  08  G 6/8 ]  ZZ[4
!!!mod: PENTATONIK HALBTONL. GONG]  AMBITUS[6
!!!kad: 323-5
!!!akz: 3113_2-6-52_1-613_21-5_
!!!fot: 'a__b__c__d__
!!!for: 'a__b__av_aw_
!!!fok: 'V__V__Va_\__
!! PHRAS[VORWIEGEND VOLLTAKTIG]
!!!fkt: Liebeslieder
!!!bem: Reuland, fff "alte <<Braalis>>", 1907
!! THILL, Mathias:
!! PR[38] 2K[0] 2G[0] 3K[10] 3G[3] 4A[0] 4Ü[0] 5A[3] 6K[0] 6G[7]
!! 7K[0] 7G[0] 8A[0] MEHR[0] SI[24] ABS[29] SR[0] SP[24]
!! ST[8] 2k[3] 2g[28] 3k[0] 3g[0] 4d[0] 4ü[0] 5d[0] 6k[7] 6g[0]
!! 7k[0] 7g[0] 8d[0] mehr[0] si[38] dm[-14] sr[31] sp[7]
!! 1F[7] 2F[83] 3F[10] 4F[0] LF[0] 2P[0] 3P[0] 4P[0] TRI[0] DF[3] AB[30]
!! TF[0] U3K[0] U3[0] U4[0] U4Ü[0] U5[0] U6K[0] U6[0] U7K[0] U7[0]
!! N1[0] N2K[0] N2[0] N3K[0] N3[7] N4[10] N4Ü[0] N5[20] N6K[0] N6[7]
!!!n7k: 0] N7[3] O1[23] O2K[0] O2[17] O3K[0] O3[13] HÖ[0
!!!RNB: symbol: &uuml;  = u umlaut (UTF-8: Ã¼)
